Adwaita++-Dark/actions/22/color-gradient.svg

<svg height="22" viewBox="0 0 22 22" width="22" xmlns="http://www.w3.org/2000/svg">
  <g fill="#e6ddff">
    <path d="m4 4h14v14h-14z" opacity=".3"/>
    <path d="m5 5v4h3.293l4.707 4.705v3.295h4v-4h-3.291l-4.709-4.707v-3.293z"/>
  </g>
</svg>

<svg xmlns="http://www.w3.org/2000/svg" width="22" height="22" version="1.1" viewBox="0 0 22 22">
 <defs>
  <style id="current-color-scheme" type="text/css">
   .ColorScheme-Text { color:#E6DDFF; } .ColorScheme-Highlight { color:#4285f4; }
  </style>
 </defs>
 <path style="opacity:0.3;fill:currentColor" class="ColorScheme-Text" d="M 4,4 18,4 18,18 4,18 Z"/>
 <path style="fill:currentColor" class="ColorScheme-Text" d="M 5,5 5,9 8.293,9 13,13.705 13,17 17,17 17,13 13.709,13 9,8.293 9,5 5,5 Z"/>
</svg>
